svgs/sharp-regular/not-equal.svg

<svg xmlns="http://www.w3.org/2000/svg" viewBox="0 0 448 512"><!--! Font Awesome Pro 6.6.0 by @fontawesome - https://fontawesome.com License - https://fontawesome.com/license (Commercial License) Copyright 2024 Fonticons, Inc. --><path d="M349.5 32l58 0-3.7 5.5L331.4 144l76.6 0 24 0 0 48-24 0-109.2 0-87 128L408 320l24 0 0 48-24 0-228.9 0L102.9 480l-58 0 9.5-14L121 368l-81 0-24 0 0-48 24 0 113.7 0 87-128L40 192l-24 0 0-48 24 0 233.4 0L349.5 32z"/></svg>

<svg xmlns="http://www.w3.org/2000/svg" viewBox="0 0 448 512"><!--! Font Awesome Pro 6.4.2 by @fontawesome - https://fontawesome.com License - https://fontawesome.com/license (Commercial License) Copyright 2023 Fonticons, Inc. --><path d="M349.5 32h58l-3.7 5.5L331.4 144H408h24v48H408 298.8l-87 128H408h24v48H408 179.1L102.9 480h-58l9.5-14L121 368H40 16V320H40 153.7l87-128H40 16V144H40 273.4L349.5 32z"/></svg>
